X:1
T:5 Gedichte für eine Frauenstimme
T:Stehe Still!
T:2. Stehe Still!
T:Richard Wagner
T:Mathilde Wesendonck
T:Fünf Gedichte für eine Frauenstimme (Wesendonck-Lieder), WWV 91
T:OpenScore (CC0)
T:OpenScore (CC0)
T:OpenScore (CC0)
T:OpenScore (CC0)
T:OpenScore (CC0)
C:Richard Wagner
Z:Mathilde Wesendonk
Z:OpenScore (CC0)
%%score 1 { ( 2 5 ) | ( 3 4 6 ) }
L:1/8
Q:1/4=105
M:6/8
K:Eb
V:1 treble nm="Voice"
V:2 treble nm="Piano"
V:5 treble 
V:3 bass 
V:4 bass 
V:6 bass 
V:1
"^Bewegt" z6 | z6 | G3/2 E/ C A3/2 F/ D | =B2 G c2 z | d2 =B A2 F | f2 d _B2 z | %6
w: ||Sau- sen des, brau- sen- des|Rad der Zeit,|Mes- ser du der|E- wig- keit;|
 B3/2 _G/ E _c3/2 A/ F | d2 B e2 z | _d c B A2 G | g2 =e c2 z | c3 _d3/2 B/ G | f2 =e f3/2 c/ c | %12
w: leuch- ten- de Sphä- ren  im|wei- ten All,|die ihr um- ringt den|Wel- ten- ball;|ur- e- wi- ge|Schöp- fung, hal- te  doch|
 _g2 z/ f/ e2 _d | c2 =B =d3- | d3 G3 | =e6 | z6 | ^c3/2 _B/ G d3 | d3/2 B/ G =E2 z | %19
w: ein, ge- nug des|Wer- dens, lass|_ mich|sein!||Hal- te an dich,|zeu- gen- de Kraft,|
 F2 d d3/2 =B/ G | _A2 e ^F2 z | G3/2 E/ C =A2 D | B3/2 G/ E c2 z | _d3/2 d/ d d e f | f2 G G2 z | %25
w: Ur- ge- dan- ke, der|e- wig schafft!|Hem- met den A- tem,|stil- let den Drang,|schwei- get nur ei- ne Se-|\- kun- de lang!|
 A3/2 F/ _D B2 E | c3/2 =A/ F =d2 z | e3/2 f/ ^f g2 e | c3- c2 =B | d3 z2 z | z2 z G2 G | %31
w: Schwel- len- de Pul- se,|fes- selt den Schlag;|en- de, des Wol- lens|ew'- * ger|Tag!|dass in|
 _B3- B2 ^c | ^c3 d2 =e | %33
w: se- * lig|sü- ssem Ver-|
"^sempre rit. poco a poco"[Q:1/4=100]"^Allmählich immer etwas zurückhaltend" =e6 | =A2 z A3 | %35
w: ges-|sen ich|
[Q:1/4=98]"^T" =B3 c2 ^c | d3 =e2 f |[Q:1/4=96]"^T" f6 | =B2 z G3 |[Q:1/4=94]"^T" (_A6- | A3 G3 | %41
w: mög' al- le|Won- nen er-|mes-|sen! Wenn|Aug'|* in|
[Q:1/4=92]"^T" F3 _d3 | c3- c2 B |[Q:1/4=90]"^T" A6 | G3) z2 z |[Q:1/4=88]"^T" (_G6- | _G3 =G3) | %47
w: Au- ge|won- * nig|trin-|ken,|See-|* le|
[Q:1/4=86]"^T" A6- | A3 =A3 |[Q:1/4=84]"^T" B6- | B3 F2 F |[Q:1/4=82]"^T" A6 | _G2 z z2 z | %53
w: ganz|_ in|See-|* le ver-|sin-|ken;|
"^(Sehr ruhig und mässig)"[Q:1/4=80]"^T" (_G3 A2 B | _c3 _d2 e ||[K:C]!p! e3- e2 B | ^G3 ^F) z (E | %57
w: We- sen in|We- sen sich|wie- * der|fin- det, und|
 =F3- F2 =G | _A3 _B2 c |!p! =d3 =A2 ^F | E3 D) z D | _E6 | _E3 z2 G | G6 | z2 z G3 | G6 | %66
w: al- * les|Hof- fens *|En- de sich|kün- det; die|Lip-|pe ver-|stummt|in|stau-|
 =A3- A2 A | _B6 | ^C2 z"^(wie gänzlich sich verlierend)" E2 E | A6 | G6 | F3- F2 E | D3- D2 ^C | %73
w: nen * dem|Schwei-|gen, kei- nen|Wunsch|mehr|will * das|Inn'- * re|
 F3 E2 z | z2 z A3 ||"^(mit gesteigertem Vortrag)"[Q:1/4=70]"^Langsam" A3- A2 A | d3- d2 d | d6- | %78
w: zeu- gen:|er-|kennt * der|Mensch * des|Ew'-|
 d3 (A2 B) | c3 c3 | d3 e3 | e6- | e3 d3 | c6 | B3 B3 | c6 | z6 | z6 | z6 | z6 | z6 | z6 || %92
w: * gen *|Spur, und|lös't dein|Rät-|* sel,|heil'-|ge Na-|tur!|||||||
[M:4/4] z8 | z8 | x8 |] %95
w: |||
V:2
 z/!p!!<(! (C/D/E/F/G/)!<)! z/!mf! (D/=E/F/G/A/) | %1
 z/!p!!<(! (C/D/_E/F/G/)!<)! z/!mf! (D/=E/F/G/A/) | z/!p! (C/D/_E/F/G/)"_cresc." z/ (D/=E/F/G/A/) | %3
 z/ (F/G/A/B/=B/) z/ (E/G/=A/B/c/) | z/ (F/_A/=B/c/d/) z/ (A/d/e/=e/f/) | %5
 z/!f! (A/d/=e/f/g/ b/a/f/d/B/A/) |!p! z/ (E/F/_G/A/B/) z/"_cresc." (F/=G/A/B/_c/) | %7
 z/ (A/B/_c/_d/=d/) z/ (=A/B/=c/d/e/) | z/ (B/c/_d/_e/=e/) z/ (B/e/f/^f/g/) | %9
!f! z/ (B/=e/f/g/a/ c'/b/g/e/c/B/) |!p! z/ (F/G/A/B/c/) z/"_cresc." (G/=A/B/c/_d/) | %11
 z/ (B/c/_d/e/=e/) z/ (=B/c/=d/e/f/) | z/ (c/_d/e/f/_g/) z/ (e/b/g/e/d/) | %13
 (c/a/f/=d/=B/c/ d/d'/=b/a/f/^f/) | (g/=f'/d'/=b/g/^g/ =a/f/d/=B/=G/F/) | %15
!f! (=E/G/)([EG]/c/)([Gc]/=e/) ([ce]/g/)([eg]/c'/)([gc']/=e'/) |!ff! (=e'3 d'3) | %17
!p! z/ (G,/=A,/B,/=C/^C/) z/ (A,/B,/=B,/C/D/) | z/ (_B,/=C/^C/D/=E/) z/ (=A,/C/D/^D/E/) | %19
 z/ ((=C/^C/D/=E/F/)) z/!<(! (D/_E/=E/F/!<)!G/) | %20
 z/!<(! (E/F/^F/G/A/)!<)! z/!>(! (F/e/c/=A/F/)!>)! |!p! z/ (C/D/E/^F/G/) z/ (D/F/G/_A/=A/) | %22
"_cresc." z/ (E/G/_A/=A/B/) z/ (F/A/B/=B/c/) | z/ (_G/=A/B/c/_d/) z/ (B/c/d/e/f/) | %24
!f! z/ (c/_d/e/=e/f/ g/"_dim."e/d/G/c/B/) |!p! z/ (_D/=E/F/G/A/) z/ (_E/G/"_cresc."A/=A/B/) | %26
 z/ (F/=A/B/=B/c/) z/ (_A/B/c/^c/d/) | z/ (A/-=B/c/d/e/) z/ (c/g/e/B/c/) | %28
 z/ (c/c'/b/a/g/ ^f/e'/d'/c'/=b/c'/) |!f! ([=fd']/=b/_a/f/) (f'/d'/b/a/) (a'/f'/d'/b/) | %30
 (a/f/d/=B/A/F/)"_dim." (d/B/G/F/D/=B,/) | _B6- |!p! B6 | z2 z =A2"^(ausdrucksvoll)"!<(! (A | %34
 =e3!<)!!>(! dc=A)!>)! |"_dim." ^G6- | (^G6 | =GGG GGG | GGG GGG) |!p! ([CE-_A-]6 | %40
 [EA][EA][EA] [EA][EA][EA]) | A6- | A6 | (A6 | G6) |!pp! (_G6- | _GGG =GGG) | A6- | AAA =AAA | %49
!p! (B6 | F6 | (A6) | (_G)GG GGG) |!pp! (_G3 A2 B | _c3 _d2 e ||[K:C]!pp! e3 e2 B | ^G3 ^F2!p! E) | %57
 ([C=F]3- [CF]2 G | _A3 _B2 c) |!pp! ([=A=d]3 A2 ^F | E3 D2) z |!p! z (G,C _EGc | [Gc_e]2) z z2 z | %63
 z (C_E Gc_e | [cg]2) z z2 z | [C_E]6 | z (Ac _ega |!pp! _bg=e ^c'bg | [g_be']2) z z2 z | %69
!pp! [G,^CEA]6- | [G,^CEA]6- | [G,^CEA]2 z4 | z6 | z6 |!pp! ((([^CEA]6 || [=CD^FA]6-))) | %76
"_cresc." [CD^FA]6 | [B,D=FA]6- | [B,DFA]6 | ([Cc]6 | [Dd]3 [Ee]3) | ([Ee]6- | [Ee]3 [Dd]3) | (c6 | %84
 B6) |!f! [CEGc]6- | [CEGc]6- | (c6 | c3"_dim." B3) | (A3 f3 | e3- e2 d) |!p! (c6- || %92
[M:4/4] c2!p! B2 e3 d) | z4!pp! (.[egc']4 | .[cegc']8) |] %95
V:3
 (([E,G,]3 [F,A,]3)) | (([E,G,]3 [F,A,]3)) | ([E,G,]3 [F,A,]3 | [F,A,=B,]3 [E,G,C]3 | [F,A,D]6) | %5
!ped! [_B,,,_B,,]3 [F,A,B,DF]3!ped-up! | [_G,B,]3 [A,_C]3 | [A,B,D]3 [B,E]3 | [B,_D=E]3 [B,D]3 | %9
!ped! [C,,C,]3 [G,B,C=EG]3!ped-up! | ([A,C]3 [B,_D]3) | [B,_D]3 [CF]3 | %12
[K:treble] [B,_D_G]3 [CGB]3 | [=DFA]3 [=B,FA]3 |[K:bass] [G,=B,D=F]6 | %15
 [C,,C,] [=E,G,C][G,C=E][K:treble] [C=EG][EGc][Gc=e] | [_A=B]6 | %17
[K:bass] [=E,,^C,=E,]3 [F,,=A,,F,]3 | [G,,=D,E,]3 [=A,,^C,G,]3 | [_A,,D,F,]3 [G,,F,=B,]3 | %20
 [C,E,_A,]3 [D,=A,C]3 | [E,G,]3 [^F,=A,]3 | [G,B,]3 [=A,C]3 | [B,_D]3 [=G,DF]3 | %24
 ((([E,B,_D]3 [=E,B,C]3))) | [F,A,]3 [G,B,]3 | [=A,C]3 [=B,DF]3 |[K:treble] [CE]3 G3- | G3 ^F3 | %29
[K:bass]!ped! [G,,G,]2 (D/=B,/A,/F,/) (F/D/B,/A,/) | %30
[K:treble] (=B/A/F/D/=B,/A,/)!ped-up![K:bass] (F/D/=B,/G,/F,/D,/) | %31
 ([G,,=E,][G,,E,][G,,E,] [G,,E,][G,,E,][G,,E,] | [G,,=E,][G,,E,][G,,E,] [G,,E,][G,,E,][G,,E,] | %33
 [F,,F,][F,,F,][F,,F,] [F,,F,][F,,F,][F,,F,] | F,[F,=A,][F,A,] [F,A,][F,A,][F,A,]) | %35
 (=E,E,E, E,E,E, | =E,E,E, E,E,E,) | (([D,,D,]6 | [G,,,G,,]6)) |!ped! z"^dolce" (A,,C, E,G,A, | %40
 C6)!ped-up! | [E,,,E,,]6- | [E,,,E,,]6 | ([E,,E,]6- |!<(! [E,,E,]3!<)! [_F,,_F,]3) | %45
!ped! z (B,,_D, E,_F,B, | _D6)!ped-up! |!ped! [_G,,,_G,,]6 | x6!ped-up! |!ped! [F,,,F,,]6 | %50
 [B,,,B,,]6 |!ped! E,,6!ped-up! | x6 |!ped! z (_G,,_C, E,_G,) z!ped-up! | z (E,_G, _CE) z || %55
[K:C]!ped! z (^G,,B,, E,^G,)!ped-up! z | z (B,,E, ^G,B,) z |!ped! z2 (C, F,_A,) z!ped-up! | %58
 z (_D,F, _A,_D) z |!ped! z (^F,,A,, D,^F,) z!ped-up! | z (A,,D, ^F,A,) z |!ped! [C,,C,]6!ped-up! | %62
 [C_E]2 z z2 z |!ped! [=A,,,=A,,]6!ped-up! | [A,_EG]2 z z2 z |!ped! z (A,,C, E,A,C!ped-up! | %66
 [F,A,C_E]6) |[K:treble] [=EG_B^c]6 | [^ce]2 z z2 z |[K:bass] [A,,,A,,]6- | [A,,,A,,]6- | %71
 [A,,,A,,]2 z4 | z6 | z6 | (([A,,G,]6 || [D,^F,]6-)) | %76
"^(mit  allmählicher  Steigerung  der  Stärke)" [D,^F,]6 | [G,,=F,]6- | [G,,F,]6 | %79
!ped!{/C,,} [C,G,_B,]6-!ped-up! | [C,G,_B,]6 |!ped! !arpeggio![F,,F,A,]6-!ped-up! | [F,,F,A,]6 | %83
!ped!{G,,,} [G,,D,G,]6-!ped-up! | [G,,D,G,]6 |!ped! [C,,C,]6-!ped-up! | [C,,C,]6- | [C,,C,]6- | %88
 [C,,C,]6 | [C,F,A,]6- | [C,F,A,]6 | [G,D]6- ||[M:4/4] [G,D]4 z4 | z4[K:treble] .[C-EG]4 | %94
 .[CEG]8 |] %95
V:4
 C,6 | C,6 | C,6 | C,6 | (C,3 =B,,3) | x6 | E,6 | F,3 _G,3 | =G,3 =C,3 | x6 | F,6 | G,3 (A,2 =A,) | %12
[K:treble] x6 | x6 |[K:bass] x6 | x3[K:treble] x3 | x6 |[K:bass] x6 | x6 | x6 | x6 | x6 | x6 | x6 | %24
 x6 | x6 | x6 |[K:treble] x3 [=A,E]3 | [_A,C]6 |[K:bass] x6 |[K:treble] x3[K:bass] x3 | x6 | x6 | %33
 x6 | F,,6 | =E,,6- | =E,,6 | x6 | x6 | [E,,,E,,]6 | x6 | x6 | x6 | x6 | x6 | [_G,,,_G,,]6 | x6 | %47
 z (_C,E, =G,A,_C | E3-) E z z | z (B,,=D, F,A,=D) | x6 | z (B,,E, F,_G,B, | E6) | [_C,,_C,]6 | %54
 x6 ||[K:C] [E,,,E,,]6 | x6 | [_A,,,_A,,]6 | x6 | [=D,,,=D,,]6 | x6 | x6 | x6 | x6 | x6 | %65
 [F,,,F,,]6 | x6 |[K:treble] x6 | x6 |[K:bass] x6 | x6 | x6 | x6 | x6 | x6 || x6 | x6 | x6 | x6 | %79
 x6 | x6 | x6 | x6 | x6 | x6 | z (E,,G,, C,E,G, | C[I:staff -1]EG ceg | c')[I:staff +1] z z z2 z | %88
 x6 | x6 | x6 | x6 ||[M:4/4] x8 | x4[K:treble] x4 | x8 |] %95
V:5
 x6 | x6 | x6 | x6 | x6 | x6 | x6 | x6 | x6 | x6 | x6 | x6 | x6 | c2 z d3 | x6 | x6 | [f=b]6 | x6 | %18
 x6 | x/ C2 =C/ x/ D2- D/ | x6 | x/ C2- C/ x/ D2- D/ | x/ E2- E/ x/ F2- F/ | x/ _G2- G/ x/ B2- B/ | %24
 G3- G2 x | x/ _D2- D/ x/ E2- E/ | x/ F2- F/ x/ A2- A/ | x/ A2 A/ x/ c2 x/ | x6 | x6 | x6 | %31
 [^C=E][CE][CE] [CE][CE][CE] | [^C=E][CE][CE] [CE][CE][CE] | [=A,=E][A,E][A,E] [A,E][A,E][A,E] | %34
 [=E=A][EA][EA] [DA][DA][DA] | [=B,D][B,D][B,D] [B,D][B,D][B,D] | %36
 [=B,D][B,D][B,D] [B,D][B,D][_B,D] | [=B,F][B,F][B,F] [B,F][B,F][B,F] | %38
 [=B,DF][B,DF][B,DF] [B,DF][B,DF][B,DF] | x6 | x6 | [A,_DF][A,DF][A,DF] [A,DF][A,DF][A,DF] | %42
 [A,_DF][A,DF][A,DF] [A,DF][A,DF][A,DF] | [B,_D][B,D][B,D] [B,D][B,D][B,D] | %44
 [B,_D][B,D][B,D] [B,D][B,D][B,D] | [B,-_D_F-]6 | [B,F][B,_F][B,F] [B,F][B,F][B,F] | ([_CE]6 | %48
 _C)CC C[CE][CE] | [=DF]6 | [A,D][A,D][A,D] [A,D][A,D][A,D] | ([B,E]6 | B,)B,B, B,B,B, | [_CE]6 | %54
 [E_G]6 ||[K:C] [E^G]6 | x6 |[I:staff +1] =F,3- F,2[I:staff -1] x | [_DF]6 | [=D^F]3- [DF]2 x | %60
 x6 | x6 | x6 | x6 | x6 |[I:staff +1] [_E,A,]6 | x6 | x6 | x6 | x6 | x6 | x6 | x6 | x6 | x6 || x6 | %76
 x6 | x6 | x6 |[I:staff -1] [E_B]6- | [E_B]6 | [FA]6- | [FA]6 | [DFG]6- | [DFG]6 | x6 | x6 | %87
 [CEG]6- | [CEG]6 | F6- | F6 | F6- ||[M:4/4] F6 z2 | c8 | x8 |] %95
V:6
 x6 | x6 | x6 | x6 | x6 | x6 | x6 | x6 | x6 | x6 | x6 | x6 |[K:treble] x6 | x6 |[K:bass] x6 | %15
 x3[K:treble] x3 | x6 |[K:bass] x6 | x6 | x6 | x6 | x6 | x6 | x6 | x6 | x6 | x6 |[K:treble] x6 | %28
 x6 |[K:bass] x6 |[K:treble] x3[K:bass] x3 | x6 | x6 | x6 | x6 | x6 | x6 | x6 | x6 | x6 | x6 | x6 | %42
 x6 | x6 | x6 | x6 | x6 | x6 | x6 | A,3- A, x2 | x6 | x6 | x6 | x6 | x6 ||[K:C] x6 | x6 | x6 | x6 | %59
 x6 | x6 | x6 | x6 | x6 | x6 | x6 | x6 |[K:treble] x6 | x6 |[K:bass] x6 | x6 | x6 | x6 | x6 | x6 || %75
 x6 | x6 | x6 | x6 | x6 | x6 | x6 | x6 | x6 | x6 | x6 | x6 | x6 | x6 | x6 | x6 | x6 ||[M:4/4] x8 | %93
 x4[K:treble] x4 | x8 |] %95

